; G-Code generated by Simplify3D(R) Version 3.0.2
; Dec 5, 2015 at 3:57:29 PM
; Settings Summary
;   processName,Process1
;   applyToModels,tasty
;   profileName,My printrbot (modified)
;   profileVersion,2015-12-04 09:19:30
;   baseProfile,Printrbot Simple Metal (modified)
;   printMaterial,PLA
;   printQuality,Medium
;   printExtruders,
;   extruderName,Primary Extruder
;   extruderToolheadNumber,0
;   extruderDiameter,0.4
;   extruderAutoWidth,0
;   extruderWidth,0.4
;   extrusionMultiplier,1
;   extruderUseRetract,1
;   extruderRetractionDistance,1
;   extruderExtraRestartDistance,0
;   extruderRetractionZLift,0
;   extruderRetractionSpeed,1800
;   extruderUseCoasting,0
;   extruderCoastingDistance,0.2
;   extruderUseWipe,0
;   extruderWipeDistance,5
;   primaryExtruder,0
;   layerHeight,0.3
;   topSolidLayers,3
;   bottomSolidLayers,3
;   perimeterOutlines,10
;   printPerimetersInsideOut,0
;   startPointOption,2
;   startPointOriginX,0
;   startPointOriginY,0
;   startPointOriginZ,300
;   sequentialIslands,0
;   spiralVaseMode,0
;   firstLayerHeightPercentage,90
;   firstLayerWidthPercentage,100
;   firstLayerUnderspeed,0.5
;   useRaft,0
;   raftExtruder,0
;   raftLayers,2
;   raftOffset,3
;   raftSeparationDistance,0.1
;   raftInfill,85
;   disableRaftBaseLayers,0
;   useSkirt,1
;   skirtExtruder,0
;   skirtLayers,1
;   skirtOutlines,1
;   skirtOffset,4
;   usePrimePillar,0
;   primePillarExtruder,999
;   primePillarWidth,12
;   primePillarLocation,7
;   primePillarSpeedMultiplier,1
;   useOozeShield,0
;   oozeShieldExtruder,999
;   oozeShieldOffset,10
;   oozeShieldOutlines,1
;   oozeShieldSidewallShape,1
;   oozeShieldSidewallAngle,30
;   oozeShieldSpeedMultiplier,1
;   infillExtruder,0
;   internalInfillPattern,Rectilinear
;   externalInfillPattern,Rectilinear
;   infillPercentage,100
;   outlineOverlapPercentage,15
;   infillExtrusionWidthPercentage,100
;   minInfillLength,5
;   infillLayerInterval,1
;   infillAngles,-45,45
;   overlapInfillAngles,0
;   generateSupport,0
;   supportExtruder,0
;   supportInfillPercentage,30
;   supportExtraInflation,0
;   denseSupportLayers,0
;   denseSupportInfillPercentage,70
;   supportLayerInterval,1
;   supportHorizontalPartOffset,0.3
;   supportUpperSeparationLayers,1
;   supportLowerSeparationLayers,1
;   supportType,0
;   supportGridSpacing,3
;   maxOverhangAngle,70
;   supportAngles,90
;   temperatureName,Primary Extruder
;   temperatureNumber,0
;   temperatureSetpointCount,2
;   temperatureSetpointLayers,1,2
;   temperatureSetpointTemperatures,210,200
;   temperatureStabilizeAtStartup,1
;   temperatureHeatedBed,0
;   temperatureRelayBetweenLayers,0
;   temperatureRelayBetweenLoops,0
;   fanLayers,1,2,5
;   fanSpeeds,0,50,100
;   blipFanToFullPower,1
;   adjustSpeedForCooling,1
;   minSpeedLayerTime,15
;   minCoolingSpeedSlowdown,20
;   increaseFanForCooling,0
;   minFanLayerTime,45
;   maxCoolingFanSpeed,100
;   increaseFanForBridging,0
;   bridgingFanSpeed,100
;   use5D,1
;   relativeEdistances,0
;   allowEaxisZeroing,1
;   independentExtruderAxes,0
;   includeM10123,0
;   stickySupport,1
;   applyToolheadOffsets,0
;   gcodeXoffset,0
;   gcodeYoffset,0
;   gcodeZoffset,0
;   overrideMachineDefinition,1
;   machineTypeOverride,0
;   strokeXoverride,150
;   strokeYoverride,150
;   strokeZoverride,150
;   originOffsetXoverride,0
;   originOffsetYoverride,0
;   originOffsetZoverride,0
;   homeXdirOverride,-1
;   homeYdirOverride,-1
;   homeZdirOverride,-1
;   flipXoverride,1
;   flipYoverride,-1
;   flipZoverride,1
;   toolheadOffsets,0,0|0,0|0,0|0,0|0,0|0,0
;   overrideFirmwareConfiguration,1
;   firmwareTypeOverride,RepRap (Marlin/Repetier/Sprinter)
;   GPXconfigOverride,r2
;   baudRateOverride,250000
;   overridePrinterModels,1
;   printerModelsOverride
;   startingGcode,G28 X0 Y0  ; Home XY,G28 Z0  ; Home Z,G29  ; Z Probe,G91 ; Relative moves,G1 Z10  ; Move Z axis up a bit,G4 S5 ; Wait 5 seconds. Wipe the nozzle dude!,G1 Z-10  ; Move Z axis up a bit,G90 ; Absolute moves,
;   layerChangeGcode,
;   retractionGcode,
;   toolChangeGcode,
;   endingGcode,G1 E-20 F300 ; retract,M104 S0 T0 ; turn off extruder,M140 S0 T1 ; turn off bed,M107 ; turn fan off,G28 X0 Y0 ; home X axis,G91 ; Relative moves,G1 Z10  ; Move Z axis up a bit,G90 ; Absolute moves,M84     ; disable motors,
;   createX3G,0
;   celebration,0
;   celebrationSong,Random Song
;   createMB5G,0
;   postProcessing,
;   defaultSpeed,2500
;   outlineUnderspeed,0.5
;   solidInfillUnderspeed,0.8
;   supportUnderspeed,0.8
;   rapidXYspeed,3600
;   rapidZspeed,1000
;   minBridgingArea,50
;   bridgingExtraInflation,0
;   bridgingExtrusionMultiplier,1
;   bridgingSpeedMultiplier,1
;   filamentDiameter,1.75
;   filamentPricePerKg,46
;   filamentDensity,1.25
;   useMinPrintHeight,0
;   minPrintHeight,0
;   useMaxPrintHeight,0
;   maxPrintHeight,0.4
;   useDiaphragm,0
;   diaphragmLayerInterval,20
;   robustSlicing,1
;   mergeAllIntoSolid,0
;   onlyRetractWhenCrossingOutline,0
;   retractBetweenLayers,1
;   useRetractionMinTravel,0
;   retractionMinTravel,3
;   retractWhileWiping,0
;   onlyWipeOutlines,1
;   avoidCrossingOutline,0
;   maxMovementDetourFactor,3
;   toolChangeRetractionDistance,12
;   toolChangeExtraRestartDistance,-0.5
;   toolChangeRetractionSpeed,600
;   allowThinWallGapFill,1
;   thinWallAllowedOverlapPercentage,10
;   horizontalSizeCompensation,0
G90
M82
M106 S0
M104 S210 T0
M109 S210 T0
G28 X0 Y0  ; Home XY
G28 Z0  ; Home Z
G29  ; Z Probe
G91 ; Relative moves
G1 Z10  ; Move Z axis up a bit
G4 S5 ; Wait 5 seconds. Wipe the nozzle dude!
G1 Z-10  ; Move Z axis up a bit
G90 ; Absolute moves
G92 E0
G1 E-1.0000 F1800
G1 Z0.270 F1000
; layer 1, Z = 0.27
T0
; tool H0.300 W0.400
; skirt
G1 X33.359 Y59.248 F3600
G1 E0.0000 F540
G92 E0
G1 X33.367 Y59.243 E0.0005 F1250
G1 X34.072 Y58.863 E0.0404
G1 X34.077 Y58.860 E0.0407
G1 X34.301 Y58.757 E0.0530
G1 X34.307 Y58.754 E0.0533
G1 X36.312 Y57.967 E0.1608
G1 X36.316 Y57.966 E0.1610
G1 X36.493 Y57.906 E0.1703
G1 X36.497 Y57.904 E0.1706
G1 X37.280 Y57.676 E0.2113
G1 X37.290 Y57.674 E0.2118
G1 X37.705 Y57.598 E0.2328
G1 X37.715 Y57.597 E0.2333
G1 X40.565 Y57.375 E0.3759
G1 X40.572 Y57.374 E0.3763
G1 X40.886 Y57.374 E0.3919
G1 X40.894 Y57.374 E0.3923
G1 X41.840 Y57.445 E0.4397
G1 X41.848 Y57.446 E0.4400
G1 X42.142 Y57.490 E0.4549
G1 X42.149 Y57.491 E0.4552
G1 X44.983 Y58.124 E0.6001
G1 X44.990 Y58.126 E0.6005
G1 X45.266 Y58.208 E0.6149
G1 X45.273 Y58.211 E0.6152
G1 X46.909 Y58.827 E0.7025
G1 X46.916 Y58.830 E0.7029
G1 X47.202 Y58.964 E0.7186
G1 X47.209 Y58.968 E0.7190
G1 X48.084 Y59.462 E0.7691
G1 X48.988 Y59.107 E0.8176
G1 X48.994 Y59.105 E0.8179
G1 X49.246 Y59.025 E0.8311
G1 X49.252 Y59.023 E0.8314
G1 X50.016 Y58.832 E0.8707
G1 X50.024 Y58.830 E0.8711
G1 X50.369 Y58.775 E0.8885
G1 X50.377 Y58.774 E0.8889
G1 X52.788 Y58.593 E1.0096
G1 X52.803 Y58.593 E1.0103
G1 X53.412 Y58.638 E1.0408
G1 X53.427 Y58.640 E1.0415
G1 X54.853 Y58.963 E1.1145
G1 X54.887 Y58.946 E1.1164
G1 X54.895 Y58.943 E1.1168
G1 X56.919 Y58.149 E1.2253
G1 X56.922 Y58.147 E1.2254
G1 X57.055 Y58.100 E1.2325
G1 X57.058 Y58.099 E1.2326
G1 X57.740 Y57.885 E1.2683
G1 X57.751 Y57.882 E1.2688
G1 X58.208 Y57.793 E1.2921
G1 X58.219 Y57.791 E1.2926
G1 X61.146 Y57.561 E1.4391
G1 X61.161 Y57.561 E1.4399
G1 X61.772 Y57.605 E1.4704
G1 X61.787 Y57.607 E1.4712
G1 X65.059 Y58.338 E1.6384
G1 X65.069 Y58.341 E1.6390
G1 X65.477 Y58.478 E1.6604
G1 X65.486 Y58.482 E1.6610
G1 X66.879 Y59.120 E1.7374
G1 X66.884 Y59.122 E1.7376
G1 X67.058 Y59.212 E1.7475
G1 X67.063 Y59.215 E1.7477
G1 X67.263 Y59.331 E1.7593
G1 X68.788 Y58.738 E1.8409
G1 X68.794 Y58.736 E1.8412
G1 X69.060 Y58.653 E1.8551
G1 X69.067 Y58.651 E1.8554
G1 X70.330 Y58.349 E1.9202
G1 X70.336 Y58.347 E1.9206
G1 X70.591 Y58.303 E1.9335
G1 X70.597 Y58.302 E1.9338
G1 X71.766 Y58.175 E1.9924
G1 X71.767 Y58.174 E1.9925
G1 X71.837 Y58.168 E1.9960
G1 X71.839 Y58.168 E1.9961
G1 X73.970 Y58.008 E2.1027
G1 X73.979 Y58.008 E2.1031
G1 X74.309 Y58.010 E2.1196
G1 X74.317 Y58.010 E2.1200
G1 X75.861 Y58.144 E2.1974
G1 X75.868 Y58.145 E2.1977
G1 X76.148 Y58.189 E2.2118
G1 X76.154 Y58.190 E2.2122
G1 X78.255 Y58.670 E2.3197
G1 X78.259 Y58.671 E2.3198
G1 X78.405 Y58.710 E2.3274
G1 X78.408 Y58.711 E2.3276
G1 X79.128 Y58.932 E2.3652
G1 X79.256 Y58.863 E2.3724
G1 X79.261 Y58.860 E2.3727
G1 X79.485 Y58.757 E2.3850
G1 X79.491 Y58.754 E2.3853
G1 X81.496 Y57.967 E2.4928
G1 X81.500 Y57.966 E2.4930
G1 X81.677 Y57.906 E2.5023
G1 X81.681 Y57.904 E2.5025
G1 X82.464 Y57.676 E2.5432
G1 X82.474 Y57.674 E2.5437
G1 X82.889 Y57.598 E2.5647
G1 X82.899 Y57.597 E2.5653
G1 X85.749 Y57.375 E2.7079
G1 X85.756 Y57.374 E2.7083
G1 X86.070 Y57.374 E2.7239
G1 X86.077 Y57.374 E2.7243
G1 X87.024 Y57.445 E2.7716
G1 X87.031 Y57.446 E2.7720
G1 X87.326 Y57.490 E2.7868
G1 X87.333 Y57.491 E2.7872
G1 X88.778 Y57.814 E2.8611
G1 X88.871 Y57.513 E2.8768
G1 X88.873 Y57.505 E2.8772
G1 X88.998 Y57.194 E2.8939
G1 X89.001 Y57.187 E2.8943
G1 X89.509 Y56.170 E2.9510
G1 X89.512 Y56.164 E2.9514
G1 X89.653 Y55.924 E2.9652
G1 X89.656 Y55.918 E2.9656
G1 X90.956 Y54.013 E3.0806
G1 X90.962 Y54.004 E3.0812
G1 X91.262 Y53.655 E3.1041
G1 X91.270 Y53.647 E3.1047
G1 X91.742 Y53.209 E3.1368
G1 X91.745 Y53.206 E3.1370
G1 X91.862 Y53.106 E3.1447
G1 X91.864 Y53.103 E3.1449
G1 X93.680 Y51.656 E3.2607
G1 X93.692 Y51.647 E3.2615
G1 X94.224 Y51.340 E3.2921
G1 X94.238 Y51.333 E3.2929
G1 X96.413 Y50.480 E3.4095
G1 X96.417 Y50.478 E3.4097
G1 X96.591 Y50.419 E3.4189
G1 X96.595 Y50.417 E3.4191
G1 X97.180 Y50.246 E3.4495
G1 X97.190 Y50.244 E3.4500
G1 X97.614 Y50.167 E3.4715
G1 X97.624 Y50.166 E3.4720
G1 X100.081 Y49.982 E3.5949
G1 X100.096 Y49.982 E3.5957
G1 X100.716 Y50.029 E3.6267
G1 X100.731 Y50.032 E3.6275
G1 X103.482 Y50.670 E3.7684
G1 X103.497 Y50.675 E3.7691
G1 X104.071 Y50.903 E3.8000
G1 X104.085 Y50.910 E3.8007
G1 X106.520 Y52.334 E3.9415
G1 X106.529 Y52.340 E3.9420
G1 X106.903 Y52.621 E3.9653
G1 X106.912 Y52.628 E3.9659
G1 X107.745 Y53.414 E4.0230
G1 X107.747 Y53.417 E4.0232
G1 X107.842 Y53.513 E4.0300
G1 X107.845 Y53.515 E4.0301
G1 X109.239 Y55.018 E4.1324
G1 X109.241 Y55.019 E4.1325
G1 X109.300 Y55.086 E4.1370
G1 X109.301 Y55.088 E4.1371
G1 X110.267 Y56.224 E4.2114
G1 X122.363 Y69.526 E5.1085
G1 X122.372 Y69.537 E5.1092
G1 X122.704 Y70.030 E5.1388
G1 X122.711 Y70.042 E5.1395
G1 X123.814 Y72.332 E5.2663
G1 X123.820 Y72.346 E5.2671
G1 X124.001 Y72.933 E5.2977
G1 X124.004 Y72.948 E5.2985
G1 X124.384 Y75.471 E5.4258
G1 X124.385 Y75.486 E5.4265
G1 X124.385 Y76.101 E5.4572
G1 X124.384 Y76.116 E5.4580
G1 X124.040 Y78.400 E5.5732
G1 X124.040 Y78.403 E5.5733
G1 X124.016 Y78.530 E5.5798
G1 X124.016 Y78.534 E5.5800
G1 X123.633 Y80.302 E5.6702
G1 X123.630 Y80.313 E5.6708
G1 X123.473 Y80.771 E5.6950
G1 X123.468 Y80.782 E5.6956
G1 X122.608 Y82.569 E5.7945
G1 X122.569 Y82.867 E5.8095
G1 X122.569 Y82.868 E5.8095
G1 X122.563 Y82.911 E5.8117
G1 X122.563 Y82.912 E5.8118
G1 X122.248 Y85.000 E5.9171
G1 X122.247 Y85.007 E5.9175
G1 X122.179 Y85.304 E5.9327
G1 X122.177 Y85.311 E5.9330
G1 X121.877 Y86.288 E5.9840
G1 X121.874 Y86.295 E5.9844
G1 X121.762 Y86.583 E5.9998
G1 X121.759 Y86.590 E6.0002
G1 X120.809 Y88.562 E6.1094
G1 X120.807 Y88.566 E6.1096
G1 X120.715 Y88.736 E6.1193
G1 X120.712 Y88.741 E6.1195
G1 X120.217 Y89.561 E6.1673
G1 X120.211 Y89.569 E6.1678
G1 X119.959 Y89.905 E6.1888
G1 X119.952 Y89.913 E6.1893
G1 X118.354 Y91.635 E6.3065
G1 X118.347 Y91.642 E6.3070
G1 X118.044 Y91.910 E6.3272
G1 X118.036 Y91.916 E6.3277
G1 X117.575 Y92.249 E6.3561
G1 X117.571 Y92.252 E6.3563
G1 X117.395 Y92.366 E6.3668
G1 X117.391 Y92.368 E6.3670
G1 X115.356 Y93.543 E6.4843
G1 X115.343 Y93.550 E6.4850
G1 X114.771 Y93.774 E6.5157
G1 X114.756 Y93.779 E6.5164
G1 X112.461 Y94.302 E6.6339
G1 X112.456 Y94.304 E6.6341
G1 X112.240 Y94.341 E6.6451
G1 X112.235 Y94.342 E6.6453
G1 X111.690 Y94.406 E6.6727
G1 X111.681 Y94.407 E6.6732
G1 X111.286 Y94.415 E6.6928
G1 X111.276 Y94.415 E6.6933
G1 X108.834 Y94.232 E6.8155
G1 X108.818 Y94.229 E6.8163
G1 X108.205 Y94.087 E6.8477
G1 X108.190 Y94.082 E6.8485
G1 X107.692 Y93.882 E6.8753
G1 X107.586 Y93.945 E6.8814
G1 X107.580 Y93.948 E6.8818
G1 X107.298 Y94.087 E6.8974
G1 X107.291 Y94.090 E6.8978
G1 X106.479 Y94.414 E6.9414
G1 X106.472 Y94.417 E6.9418
G1 X106.167 Y94.512 E6.9578
G1 X106.159 Y94.514 E6.9582
G1 X105.373 Y94.694 E6.9984
G1 X105.364 Y94.711 E6.9994
G1 X105.357 Y94.724 E7.0001
G1 X105.009 Y95.236 E7.0310
G1 X104.999 Y95.248 E7.0318
G1 X103.335 Y97.041 E7.1538
G1 X103.328 Y97.048 E7.1543
G1 X103.030 Y97.313 E7.1742
G1 X103.022 Y97.319 E7.1747
G1 X102.459 Y97.729 E7.2095
G1 X102.454 Y97.732 E7.2097
G1 X102.274 Y97.849 E7.2205
G1 X102.269 Y97.852 E7.2207
G1 X100.238 Y99.024 E7.3377
G1 X100.225 Y99.031 E7.3385
G1 X99.667 Y99.252 E7.3684
G1 X99.653 Y99.256 E7.3692
G1 X96.897 Y99.905 E7.5104
G1 X96.889 Y99.906 E7.5108
G1 X96.559 Y99.956 E7.5274
G1 X96.551 Y99.957 E7.5278
G1 X95.814 Y100.008 E7.5647
G1 X95.806 Y100.008 E7.5651
G1 X95.494 Y100.006 E7.5806
G1 X95.487 Y100.005 E7.5810
G1 X92.349 Y99.743 E7.7381
G1 X92.337 Y99.741 E7.7387
G1 X91.845 Y99.639 E7.7638
G1 X91.834 Y99.636 E7.7644
G1 X90.865 Y99.306 E7.8154
G1 X90.863 Y99.305 E7.8155
G1 X90.775 Y99.273 E7.8202
G1 X90.773 Y99.272 E7.8203
G1 X88.763 Y98.483 E7.9281
G1 X88.755 Y98.480 E7.9285
G1 X88.441 Y98.325 E7.9459
G1 X88.434 Y98.321 E7.9464
G1 X87.578 Y97.803 E7.9963
G1 X87.573 Y97.799 E7.9966
G1 X87.356 Y97.648 E8.0098
G1 X87.351 Y97.644 E8.0101
G1 X85.693 Y96.322 E8.1159
G1 X85.691 Y96.320 E8.1160
G1 X85.611 Y96.253 E8.1212
G1 X85.609 Y96.252 E8.1213
G1 X85.079 Y95.783 E8.1566
G1 X84.692 Y95.670 E8.1768
G1 X84.688 Y95.668 E8.1770
G1 X84.516 Y95.609 E8.1861
G1 X84.511 Y95.608 E8.1863
G1 X82.798 Y94.935 E8.2781
G1 X82.523 Y95.092 E8.2939
G1 X82.509 Y95.099 E8.2947
G1 X81.947 Y95.318 E8.3248
G1 X81.933 Y95.322 E8.3255
G1 X79.625 Y95.849 E8.4436
G1 X79.619 Y95.850 E8.4439
G1 X79.368 Y95.891 E8.4566
G1 X79.362 Y95.892 E8.4569
G1 X78.321 Y95.997 E8.5091
G1 X78.312 Y95.997 E8.5096
G1 X77.937 Y96.000 E8.5283
G1 X77.927 Y96.000 E8.5287
G1 X75.010 Y95.758 E8.6748
G1 X74.996 Y95.756 E8.6755
G1 X74.422 Y95.624 E8.7049
G1 X74.408 Y95.620 E8.7056
G1 X71.680 Y94.563 E8.8516
G1 X71.670 Y94.558 E8.8521
G1 X71.272 Y94.351 E8.8745
G1 X71.262 Y94.346 E8.8751
G1 X70.626 Y93.921 E8.9132
G1 X70.622 Y93.919 E8.9134
G1 X70.482 Y93.816 E8.9221
G1 X70.478 Y93.813 E8.9223
G1 X69.801 Y93.273 E8.9656
G1 X69.014 Y93.724 E9.0108
G1 X69.003 Y93.729 E9.0114
G1 X68.578 Y93.912 E9.0345
G1 X68.568 Y93.916 E9.0350
G1 X67.740 Y94.167 E9.0782
G1 X67.736 Y94.168 E9.0784
G1 X67.598 Y94.204 E9.0855
G1 X67.595 Y94.205 E9.0857
G1 X65.492 Y94.685 E9.1933
G1 X65.485 Y94.687 E9.1937
G1 X65.192 Y94.732 E9.2084
G1 X65.185 Y94.732 E9.2088
G1 X64.241 Y94.808 E9.2561
G1 X64.233 Y94.808 E9.2565
G1 X63.908 Y94.809 E9.2726
G1 X63.900 Y94.808 E9.2730
G1 X60.777 Y94.564 E9.4293
G1 X60.772 Y94.563 E9.4296
G1 X60.566 Y94.536 E9.4400
G1 X60.561 Y94.536 E9.4402
G1 X60.288 Y94.486 E9.4541
G1 X60.177 Y94.717 E9.4669
G1 X60.169 Y94.730 E9.4676
G1 X59.823 Y95.238 E9.4983
G1 X59.814 Y95.250 E9.4990
G1 X58.151 Y97.041 E9.6209
G1 X58.144 Y97.048 E9.6214
G1 X57.846 Y97.313 E9.6413
G1 X57.838 Y97.319 E9.6418
G1 X57.275 Y97.729 E9.6766
G1 X57.270 Y97.732 E9.6768
G1 X57.090 Y97.849 E9.6876
G1 X57.085 Y97.852 E9.6878
G1 X55.054 Y99.024 E9.8048
G1 X55.041 Y99.031 E9.8056
G1 X54.483 Y99.252 E9.8355
G1 X54.469 Y99.256 E9.8363
G1 X51.713 Y99.905 E9.9775
G1 X51.705 Y99.906 E9.9779
G1 X51.375 Y99.956 E9.9945
G1 X51.367 Y99.957 E9.9950
G1 X50.638 Y100.007 E10.0314
G1 X50.631 Y100.007 E10.0318
G1 X50.337 Y100.006 E10.0464
G1 X50.330 Y100.006 E10.0468
G1 X48.221 Y99.848 E10.1523
G1 X48.220 Y99.848 E10.1524
G1 X48.161 Y99.843 E10.1553
G1 X48.159 Y99.842 E10.1554
G1 X47.101 Y99.732 E10.2085
G1 X47.090 Y99.730 E10.2090
G1 X46.640 Y99.632 E10.2320
G1 X46.630 Y99.629 E10.2326
G1 X45.681 Y99.306 E10.2825
G1 X45.679 Y99.305 E10.2827
G1 X45.591 Y99.273 E10.2873
G1 X45.589 Y99.272 E10.2875
G1 X43.579 Y98.483 E10.3952
G1 X43.571 Y98.480 E10.3956
G1 X43.257 Y98.325 E10.4131
G1 X43.250 Y98.320 E10.4135
G1 X42.394 Y97.802 E10.4634
G1 X42.389 Y97.799 E10.4637
